X:789
T:Reel 789
M:4/4
K:Gmaj
L:1/8
ge|dG (3BAG dGeG|dGBd g2fe|dGBG FGAB|cBAB c2:|ge|dG (3BAG d2ed|dG (3BAG d2de|dG (3GGG d2eg||afde gfge:||2af (3gef g2fe|dggf g2fg|afge edd2|dggf g2ab|agfa gfed|dggf gbag|fdef gedB|c2ec B2dB|AGAB cdef|
